X:1
T:Title
%%score { 1 | 2 }
L:1/8
Q:1/4=90
M:6/8
K:C
V:1 treble nm="Grand Piano"
V:2 bass 
V:1
 [Ec]>[Ec][Ec] [Ec][GB][FA] | [FA]3 [EG]3 | [CEG]>[CEG][CEG] [B,DG][CEG][DFG] | [CEG]6 | %4
w: James~B.~Biggerstaff * * * * *||||
 [Ec]>[Ec][Ec] [Ec][GB][FA] | [FA]3 [EG]3 | G>GG ^FGA | G6 | B>BB BAG | [FA]3 [EG]3 | GBB BAB | %11
w: |||||||
 c6 | c>cc c[GB][FA] | [EG]3 c3 | G>GG GGG | [EG]6 |] %16
w: |||||
V:2
 [C,G,]>[C,G,][C,G,] [C,G,][C,A,][C,B,] | [C,C]3 [C,C]3 | G,>G,G, G,,G,,G,, | C,6 | %4
 [C,G,]>[C,G,][C,G,] [C,G,][C,A,][C,B,] | [C,C]3 [C,C]3 | %6
 [D,B,D]>[D,B,D][D,B,D] [D,A,D][D,B,D][D,CD] | [G,B,D]6 | [G,DF]>[G,DF][G,DF] [G,DF][G,CF][G,B,F] | %9
 [C,C]3 [C,C]3 | [G,B,F][G,DF][G,DF] [G,DF][G,CF][G,DF] | [A,CE]6 | %12
 [F,A,F]>[F,A,F][F,A,F] [F,A,F][F,A,][F,B,] | [C,C]3[K:treble] [A,CE]3 | %14
 [G,CE]>[G,CE][G,CE] [G,B,D][G,CE][G,DF] | [C,C]6 |] %16

